src/icons/toggle-button-DarkMode .svg

<svg width="41" height="31" viewBox="0 0 41 31" fill="none" xmlns="http://www.w3.org/2000/svg">
<path d="M0 3C0 1.61929 1.11929 0.5 2.5 0.5H37.7128C39.0935 0.5 40.2128 1.61929 40.2128 3V3.37234V3.74468C40.2128 5.12539 39.0935 6.24468 37.7128 6.24468H2.5C1.11929 6.24468 0 5.12539 0 3.74468V3Z" fill="#C8D2E0"/>
<path d="M0 15.1277C0 13.747 1.11929 12.6277 2.5 12.6277H37.7128C39.0935 12.6277 40.2128 13.747 40.2128 15.1277V15.5V15.8724C40.2128 17.2531 39.0935 18.3724 37.7128 18.3724H2.5C1.11929 18.3724 0 17.2531 0 15.8724V15.1277Z" fill="#C8D2E0"/>
<path d="M0 27.2554C0 25.8747 1.11929 24.7554 2.5 24.7554H37.7128C39.0935 24.7554 40.2128 25.8747 40.2128 27.2554V27.6277V28.0001C40.2128 29.3808 39.0935 30.5001 37.7128 30.5001H2.5C1.11929 30.5001 0 29.3808 0 28.0001V27.2554Z" fill="#C8D2E0"/>
</svg>

<svg xmlns="http://www.w3.org/2000/svg" width="41" height="31" fill="none"><path fill="#C8D2E0" d="M0 3A2.5 2.5 0 0 1 2.5.5h35.213a2.5 2.5 0 0 1 2.5 2.5v.745a2.5 2.5 0 0 1-2.5 2.5H2.5a2.5 2.5 0 0 1-2.5-2.5V3ZM0 15.128a2.5 2.5 0 0 1 2.5-2.5h35.213a2.5 2.5 0 0 1 2.5 2.5v.744a2.5 2.5 0 0 1-2.5 2.5H2.5a2.5 2.5 0 0 1-2.5-2.5v-.744ZM0 27.255a2.5 2.5 0 0 1 2.5-2.5h35.213a2.5 2.5 0 0 1 2.5 2.5V28a2.5 2.5 0 0 1-2.5 2.5H2.5A2.5 2.5 0 0 1 0 28v-.745Z"/></svg>
